svgs/microsoft_solitaire.svg

<svg width="192" height="192" viewBox="0 0 192 192" fill="none" xmlns="http://www.w3.org/2000/svg"><path fill-rule="evenodd" clip-rule="evenodd" d="M60 16c-11.046 0-20 8.954-20 20v120c0 11.046 8.954 20 20 20h72c11.046 0 20-8.954 20-20V36c0-11.046-8.954-20-20-20H60Zm-8 20a8 8 0 0 1 8-8h72a8 8 0 0 1 8 8v120a8 8 0 0 1-8 8H60a8 8 0 0 1-8-8V36Zm49.692 18.103a6 6 0 0 0-11.384 0c-.536 1.606-2.039 3.707-4.99 6.751-1.343 1.385-2.831 2.815-4.476 4.397l-.25.24c-1.715 1.649-3.571 3.439-5.408 5.341C67.885 78.392 60 88.6 60 103c0 8.15 4.645 16.351 11.948 20.666 5.234 3.093 11.526 4.038 18.052 2.099V140a6 6 0 1 0 12 0v-14.235c6.526 1.939 12.818.994 18.052-2.099C127.355 119.351 132 111.15 132 103c0-14.4-7.885-24.609-15.184-32.168-1.837-1.902-3.693-3.692-5.408-5.341l-.249-.24c-1.646-1.581-3.134-3.012-4.477-4.397-2.951-3.044-4.454-5.145-4.99-6.751ZM72 103c0-9.6 5.115-16.891 11.816-23.832 1.663-1.723 3.37-3.37 5.092-5.026l.3-.289c1.598-1.535 3.229-3.103 4.724-4.645A67.612 67.612 0 0 0 96 66.988c.684.772 1.38 1.512 2.068 2.22 1.495 1.542 3.126 3.11 4.724 4.645l.3.289c1.722 1.656 3.429 3.303 5.092 5.026C114.885 86.108 120 93.4 120 103c0 3.85-2.355 8.149-6.052 10.334-3.219 1.902-8.101 2.551-14.348-2.134a6 6 0 0 0-7.2 0c-6.247 4.685-11.13 4.036-14.348 2.134C74.355 111.149 72 106.85 72 103Z" fill="#000"/></svg>

<?xml version="1.0" encoding="UTF-8" standalone="no"?><svg xmlns:android="http://schemas.android.com/apk/res/android" height="192" width="192" xmlns="http://www.w3.org/2000/svg">
  <path d="M60,16C48.954,16 40,24.954 40,36V156C40,167.046 48.954,176 60,176H132C143.046,176 152,167.046 152,156V36C152,24.954 143.046,16 132,16H60ZM52,36C52,31.582 55.582,28 60,28H132C136.418,28 140,31.582 140,36V156C140,160.418 136.418,164 132,164H60C55.582,164 52,160.418 52,156V36ZM101.692,54.103C100.875,51.653 98.583,50 96,50C93.417,50 91.125,51.653 90.308,54.103C89.772,55.709 88.269,57.81 85.318,60.854C83.975,62.239 82.487,63.669 80.842,65.251L80.842,65.251L80.592,65.491C78.877,67.14 77.021,68.93 75.184,70.832C67.885,78.392 60,88.599 60,103C60,111.15 64.645,119.351 71.948,123.666C77.182,126.759 83.474,127.704 90,125.765V140C90,143.314 92.686,146 96,146C99.314,146 102,143.314 102,140V125.765C108.526,127.704 114.818,126.759 120.052,123.666C127.355,119.351 132,111.15 132,103C132,88.599 124.115,78.392 116.816,70.832C114.979,68.93 113.123,67.14 111.408,65.491L111.159,65.251C109.513,63.67 108.025,62.239 106.682,60.854C103.731,57.81 102.228,55.709 101.692,54.103ZM72,103C72,93.401 77.115,86.108 83.816,79.168C85.479,77.445 87.186,75.798 88.908,74.142L89.208,73.853C90.806,72.318 92.437,70.75 93.932,69.208C94.619,68.5 95.316,67.76 96,66.988C96.684,67.76 97.381,68.5 98.068,69.208C99.563,70.75 101.194,72.318 102.792,73.853L103.092,74.142C104.814,75.798 106.521,77.445 108.184,79.168C114.885,86.108 120,93.401 120,103C120,106.85 117.645,111.149 113.948,113.334C110.729,115.236 105.847,115.885 99.6,111.2C97.467,109.6 94.533,109.6 92.4,111.2C86.153,115.885 81.271,115.236 78.052,113.334C74.355,111.149 72,106.85 72,103Z" fill="#000000" fill-rule="evenOdd"/>
</svg>
